X:61
T: Mailí san seóirse, S. 181
N: I0560
O: Irland
S: O'SULLIVAN, Donal: Song of the Irish]
R: "Songs of the Harpers", erzählendes Lied, Liebe?]
M: 3/4
L: 1/16
K: Eb
B2cd | e4ed3c2B2 | B4cB3AG3 | A4G4F2E2 | C8
F2G2B2 | c4dc3BG3 | F4B4B,4 | C4F4E4 | E8
B,2C2d2 | E4F4G2F2 | G4G4F2E2 | A4B4c2d2 | e8
B2c2e2 | f4g4f2e2c2 | B4c2B2c2B2G2 | G4B2G2F2G2 | F8
A2G2 | A4B4c2d2 | e6e2d2c2 | B4G4F2E2 | C8
F2G2B2 | c4d2c2B2G2 | F4B4B,2B,2 | C4F4E4 | E8

